html/assets/images/dynamic/icon2.svg

<svg width="92" height="75" viewBox="0 0 92 75" fill="none" xmlns="http://www.w3.org/2000/svg">
<g id="Group">
<path id="Vector" d="M63.0718 13.646H82.1564V19.3714H85.9734V27.0053H82.1564V38.4561" stroke="#00999A" stroke-width="4" stroke-miterlimit="10"/>
<path id="Vector_2" d="M78.3394 0.286621V13.6459" stroke="#00999A" stroke-width="4" stroke-miterlimit="10"/>
<path id="Vector_3" d="M70.7056 7.92041V13.6458" stroke="#00999A" stroke-width="4" stroke-miterlimit="10"/>
<path id="Vector_4" d="M49.7124 23.1882H30.6277V34.639" stroke="#00999A" stroke-width="4" stroke-miterlimit="10"/>
<path id="Vector_5" d="M68.7971 38.456V23.1882H49.7124V38.456" stroke="#00999A" stroke-width="4" stroke-miterlimit="10"/>
<path id="Vector_6" d="M30.6276 23.1882H11.543V34.639" stroke="#00999A" stroke-width="4" stroke-miterlimit="10"/>
<path id="Vector_7" d="M59.2548 23.1881V9.82886H40.1702" stroke="#00999A" stroke-width="4" stroke-miterlimit="10"/>
<path id="Vector_8" d="M40.1701 23.1881V9.82886H21.0854V23.1881" stroke="#00999A" stroke-width="4" stroke-miterlimit="10"/>
<path id="Vector_9" d="M16.5432 57.1207C16.5432 46.1661 2.00073 46.0897 2.00073 34.6389H36.1241L45.0748 38.4559H85.9733V49.754C85.9733 52.5594 85.8206 54.3534 84.9236 55.7275" stroke="#00999A" stroke-width="4" stroke-miterlimit="10"/>
<path id="Vector_10" d="M12.7639 59.9454L19.0618 55.0024C20.4741 53.8955 22.3253 54.0291 23.623 55.3269L25.9705 57.6934C27.2873 59.0293 29.1767 59.1247 30.608 57.9606L34.1578 55.0406C35.551 53.8955 37.3831 53.9719 38.7 55.2315L41.3909 57.7888C42.7459 59.0675 44.6162 59.1057 46.0094 57.9033L49.2347 55.117C50.5897 53.9337 52.4218 53.9528 53.7769 55.1551L56.7922 57.8651C58.1663 59.0866 60.0557 59.0866 61.4107 57.827L64.3116 55.1742C65.6475 53.9528 67.4796 53.9146 68.8537 55.0788L72.1936 57.9224C73.5867 59.1057 75.4761 59.0484 76.8121 57.7506L79.3694 55.2696C80.6863 53.991 82.5184 53.8955 83.9116 55.0215L89.9995 59.9263" stroke="#00999A" stroke-width="4" stroke-miterlimit="10"/>
<path id="Vector_11" d="M2.00073 69.1252L3.64199 67.8274C5.05425 66.7205 6.90549 66.8541 8.20325 68.1518L10.5507 70.5183C11.8675 71.8543 13.7569 71.9497 15.1882 70.7855L18.738 67.8656C20.1311 66.7205 21.9633 66.7968 23.2801 68.0564L25.9711 70.6138C27.3261 71.8924 29.1964 71.9306 30.5896 70.7283L33.8149 67.9419C35.1699 66.7587 37.002 66.7777 38.357 67.9801L41.3724 70.6901C42.7465 71.9115 44.6359 71.9115 45.9909 70.6519L48.8918 67.9992C50.2277 66.7777 52.0598 66.7396 53.4339 67.9037L56.7738 70.7473C58.1669 71.9306 60.0563 71.8734 61.3922 70.5756L63.9496 68.0946C65.2664 66.8159 67.0985 66.7205 68.4917 67.8465L74.5797 72.7512" stroke="#00999A" stroke-width="4" stroke-miterlimit="10"/>
<path id="Vector_12" d="M30.6277 42.2729H34.4446" stroke="#00999A" stroke-width="4" stroke-miterlimit="10"/>
</g>
</svg>

<svg width="92" height="75" fill="none" xmlns="http://www.w3.org/2000/svg"><g stroke="#00999A" stroke-width="4" stroke-miterlimit="10"><path d="M63.072 13.646h19.084v5.725h3.817v7.634h-3.817v11.451M78.34.287v13.359M70.706 7.92v5.726m-20.994 9.542H30.628V34.64m38.169 3.816V23.188H49.712v15.268M30.628 23.188H11.543V34.64m47.712-11.452V9.828H40.17m0 13.36V9.828H21.085v13.36"/><path d="M16.543 57.12c0-10.954-14.542-11.03-14.542-22.481h34.123l8.95 3.817h40.9v11.298c0 2.805-.153 4.6-1.05 5.974"/><path d="M12.764 59.945l6.298-4.943c1.412-1.107 3.263-.973 4.561.325l2.348 2.366c1.316 1.336 3.206 1.432 4.637.268l3.55-2.92c1.393-1.145 3.225-1.07 4.542.19l2.69 2.558c1.356 1.279 3.226 1.317 4.62.114l3.225-2.786c1.355-1.183 3.187-1.164 4.542.038l3.015 2.71c1.374 1.222 3.264 1.222 4.619-.038l2.9-2.653c1.336-1.221 3.169-1.26 4.543-.095l3.34 2.843c1.393 1.184 3.282 1.126 4.618-.171l2.557-2.481c1.317-1.279 3.15-1.375 4.543-.248l6.087 4.904M2 69.125l1.642-1.298c1.412-1.106 3.263-.973 4.561.325l2.348 2.366c1.316 1.336 3.206 1.432 4.637.267l3.55-2.92c1.393-1.144 3.225-1.068 4.542.191l2.691 2.558c1.355 1.278 3.225 1.317 4.619.114l3.225-2.786c1.355-1.183 3.187-1.164 4.542.038l3.015 2.71c1.374 1.222 3.264 1.222 4.619-.038l2.9-2.653c1.337-1.221 3.169-1.26 4.543-.095l3.34 2.843c1.393 1.184 3.282 1.126 4.618-.171l2.558-2.481c1.316-1.28 3.148-1.374 4.542-.248l6.088 4.904M30.628 42.273h3.817"/></g></svg>
